frontend/css/icons/camp-management.svg

<?xml version="1.0" encoding="UTF-8" standalone="no"?>
<svg viewBox="0 0 32 32" version="1.1" xmlns="http://www.w3.org/2000/svg" xmlns:xlink="http://www.w3.org/1999/xlink">
    <!-- Generator: Sketch 46.1 (44463) - http://www.bohemiancoding.com/sketch -->
    <title>icons/camp-management</title>
    <desc>Created with Sketch.</desc>
    <defs></defs>
    <g id="Symbols" stroke="none" stroke-width="1" fill="none" fill-rule="evenodd">
        <g id="icons/camp-management">
            <g id="Group">
                <circle id="Oval-2-Copy-2" fill="#FAB400" cx="16" cy="16" r="16"></circle>
                <path d="M12.5056,7.50112 L5.5,11.31192 L6.2448,11.73052 L8.9762,13.24812 L8.944,13.26492 L8.9412,13.26492 L8.9412,13.26632 L5.5602,15.10872 L8.9412,16.92592 L8.9412,21.49272 L15.9986,25.00812 L23.0588,21.49272 L23.0588,16.93992 L26.4664,15.10872 L23.0742,13.26492 L26.5,11.36232 L25.744,10.95492 L19.4916,7.54732 L16.0448,9.42612 L12.5056,7.50112 Z M7.4586,11.32032 L12.5056,8.57352 L15.0074,9.93572 L9.9002,12.67972 L7.4586,11.32032 Z M16.9898,9.98752 L19.4916,8.62252 L24.5386,11.36932 L22.0956,12.72872 L16.9898,9.98752 Z M16.9212,16.49612 L21.9738,13.73952 L24.4784,15.10312 L19.3712,17.84432 L16.9212,16.49612 Z M7.5426,15.10452 L10.043,13.73952 L15.1418,16.49612 L12.6484,17.84432 L7.5426,15.10452 Z M16.4746,17.31932 L19.3628,18.92232 L22.1138,17.44812 L22.1138,20.90752 L16.4746,23.71312 L16.4746,17.31932 Z M15.5268,17.32912 L15.5268,23.71592 L9.8876,20.90752 L9.8876,17.43552 L12.6554,18.92232 L15.5268,17.32912 Z" id="Page-1" fill="#FFFFFF"></path>
            </g>
        </g>
    </g>
</svg>

<!-- Generated by IcoMoon.io -->
<svg version="1.1" xmlns="http://www.w3.org/2000/svg" viewBox="0 0 32 32">
<title>camp-management</title>
<path d="M16 32c-8.837 0-16-7.163-16-16s7.163-16 16-16c8.837 0 16 7.163 16 16s-7.163 16-16 16zM12.506 7.501l-7.006 3.811 0.745 0.419 2.731 1.518-0.032 0.017h-0.003v0.001l-3.381 1.842 3.381 1.817v4.567l7.057 3.515 7.060-3.515v-4.553l3.408-1.831-3.392-1.844 3.426-1.903-0.756-0.407-6.252-3.408-3.447 1.879-3.539-1.925zM7.459 11.32l5.047-2.747 2.502 1.362-5.107 2.744-2.442-1.359zM16.99 9.988l2.502-1.365 5.047 2.747-2.443 1.359-5.106-2.741zM16.921 16.496l5.053-2.757 2.505 1.364-5.107 2.741-2.45-1.348zM7.543 15.105l2.5-1.365 5.099 2.757-2.493 1.348-5.106-2.74zM16.475 17.319l2.888 1.603 2.751-1.474v3.459l-5.639 2.806v-6.394zM15.527 17.329v6.387l-5.639-2.808v-3.472l2.768 1.487 2.871-1.593z"></path>
</svg>
